;FLAVOR:Marlin
;TIME:7853
;Filament used: 3.28478m
;Layer height: 0.2
;MINX:53.779
;MINY:69.198
;MINZ:0.2
;MAXX:135.383
;MAXY:150.802
;MAXZ:230.8
;TARGET_MACHINE.NAME:Creality Ender-3 S1
;Generated with Cura_SteamEngine 5.10.0
; Ender 3 S1 Start G-code
; M413 S0 ; Disable power loss recovery
G92 E0 ; Reset Extruder

; Prep surfaces before auto home for better accuracy
M140 S60
M104 S200

G28 ; Home all axes
G1 Z10.0 F3000 ; Move Z Axis up little to prevent scratching of Heat Bed
G1 X0 Y0

M190 S60
M109 S200

G1 X0.1 Y20 Z0.3 F5000.0 ; Move to start position
G1 X0.1 Y200.0 Z0.3 F1500.0 E15 ; Draw the first line
G1 X0.4 Y200.0 Z0.3 F5000.0 ; Move to side a little
G1 X0.4 Y20 Z0.3 F1500.0 E30 ; Draw the second line
G92 E0 ; Reset Extruder
G1 Z2.0 F3000 ; Move Z Axis up little to prevent scratching of Heat Bed
G1 X5 Y20 Z0.3 F5000.0 ; Move over to prevent blob squish

M82 ;absolute extrusion mode
G92 E0
G92 E0
G1 F2400 E-0.8
;LAYER_COUNT:1154
;LAYER:0
M107
M204 S2000
G0 F7500 X85.061 Y73.08 Z0.2
M204 S500
;TYPE:SKIRT
G1 F2400 E0
G1 F1500 X85.674 Y72.417 E0.03003
G1 X86.449 Y71.717 E0.06477
G1 X87.228 Y71.132 E0.09717
G1 X88.054 Y70.618 E0.12953
G1 X88.892 Y70.193 E0.16078
G1 X89.829 Y69.819 E0.19433
G1 X90.761 Y69.54 E0.22669
G1 X91.645 Y69.356 E0.25672
G1 X93.077 Y69.215 E0.30458
G1 X93.831 Y69.198 E0.32967
G1 X95.532 Y69.21 E0.38624
G1 X96.504 Y69.262 E0.41862
G1 X97.468 Y69.399 E0.451
G1 X98.347 Y69.602 E0.48101
G1 X99.34 Y69.927 E0.51576
G1 X100.17 Y70.282 E0.54579
G1 X101.092 Y70.778 E0.58061
G1 X101.903 Y71.315 E0.61296
G1 X102.664 Y71.923 E0.64536
G1 X103.369 Y72.594 E0.67773
G1 X103.967 Y73.271 E0.70777
G1 X104.444 Y73.903 E0.73411
G1 X105.893 Y75.974 E0.81817
G1 X107.365 Y77.962 E0.90045
G1 X108.937 Y79.962 E0.98506
G1 X110.524 Y81.868 E1.06755
G1 X112.216 Y83.788 E1.15267
G1 X113.934 Y85.628 E1.23639
G1 X115.246 Y86.969 E1.29879
G1 X116.59 Y88.317 E1.3621
G1 X118.451 Y90.131 E1.44854
G1 X120.306 Y91.84 E1.53243
G1 X122.213 Y93.499 E1.6165
G1 X124.144 Y95.09 E1.69972
G1 X126.123 Y96.624 E1.783
G1 X128.142 Y98.101 E1.8662
G1 X129.588 Y99.087 E1.92441
G1 X130.688 Y99.854 E1.96901
G1 X131.459 Y100.448 E2.00139
G1 X132.175 Y101.107 E2.03375
G1 X132.831 Y101.828 E2.06617
G1 X133.419 Y102.604 E2.09855
G1 X133.938 Y103.428 E2.13094
G1 X134.351 Y104.231 E2.16098
G1 X134.745 Y105.198 E2.19571
G1 X135.02 Y106.097 E2.22698
G1 X135.228 Y107.084 E2.26052
G1 X135.337 Y107.98 E2.29055
G1 X135.368 Y108.527 E2.30877
G1 X135.383 Y109.184 E2.33063
G1 X135.382 Y110.276 E2.36695
G1 X135.369 Y111.05 E2.39269
G1 X135.309 Y112.023 E2.42512
G1 X135.162 Y112.984 E2.45745
G1 X134.931 Y113.931 E2.48987
G1 X134.617 Y114.853 E2.52227
G1 X134.222 Y115.744 E2.55468
G1 X133.751 Y116.595 E2.58703
G1 X133.206 Y117.401 E2.61939
G1 X132.592 Y118.158 E2.65181
G1 X131.914 Y118.856 E2.68418
G1 X131.18 Y119.49 E2.71644
G1 X130.531 Y119.963 E2.74315
G1 X129.882 Y120.403 E2.76923
G1 X127.734 Y121.901 E2.85633
G1 X125.735 Y123.382 E2.93907
G1 X123.742 Y124.945 E3.02331
G1 X121.797 Y126.562 E3.10744
G1 X119.92 Y128.216 E3.19065
G1 X118.082 Y129.93 E3.27424
G1 X115.789 Y132.21 E3.38179
G1 X113.971 Y134.135 E3.46986
G1 X112.29 Y136.022 E3.55391
G1 X110.696 Y137.917 E3.63627
G1 X109.108 Y139.915 E3.72116
G1 X107.627 Y141.894 E3.80337
G1 X106.139 Y144 E3.88913
G1 X104.849 Y145.932 E3.9664
G1 X104.315 Y146.66 E3.99643
G1 X103.623 Y147.444 E4.03121
G1 X102.916 Y148.112 E4.06356
G1 X102.152 Y148.717 E4.09597
G1 X101.337 Y149.25 E4.12836
G1 X100.479 Y149.71 E4.16074
G1 X99.583 Y150.092 E4.19314
G1 X98.658 Y150.394 E4.2255
G1 X97.778 Y150.599 E4.25556
G1 X96.752 Y150.744 E4.29002
G1 X96.02 Y150.789 E4.31441
G1 X95.331 Y150.802 E4.33733
G1 X93.631 Y150.79 E4.39388
G1 X92.659 Y150.738 E4.42625
G1 X91.695 Y150.601 E4.45864
G1 X90.78 Y150.388 E4.48988
G1 X89.823 Y150.073 E4.52339
G1 X88.993 Y149.718 E4.55342
G1 X88.071 Y149.222 E4.58824
G1 X87.26 Y148.685 E4.62059
G1 X86.498 Y148.077 E4.65301
G1 X85.794 Y147.405 E4.68538
G1 X85.196 Y146.729 E4.7154
G1 X84.806 Y146.219 E4.73676
G1 X83.428 Y144.26 E4.81642
G1 X81.922 Y142.227 E4.90057
G1 X80.366 Y140.248 E4.9843
G1 X78.761 Y138.323 E5.06766
G1 X77.117 Y136.458 E5.15035
G1 X75.392 Y134.609 E5.23446
G1 X73.059 Y132.264 E5.34447
G1 X70.119 Y129.412 E5.48071
G1 X68.287 Y127.733 E5.56336
G1 X66.397 Y126.101 E5.64642
G1 X64.428 Y124.493 E5.73097
G1 X62.465 Y122.979 E5.81342
G1 X60.353 Y121.446 E5.90022
G1 X58.505 Y120.167 E5.97497
G1 X57.731 Y119.577 E6.00734
G1 X57.012 Y118.919 E6.03976
G1 X56.377 Y118.228 E6.07097
G1 X55.763 Y117.427 E6.10454
G1 X55.243 Y116.604 E6.13692
G1 X54.797 Y115.739 E6.16929
G1 X54.429 Y114.837 E6.20169
G1 X54.143 Y113.906 E6.23408
G1 X53.939 Y112.955 E6.26643
G1 X53.827 Y112.059 E6.29646
G1 X53.792 Y111.439 E6.31712
G1 X53.779 Y110.75 E6.34004
G1 X53.791 Y109.049 E6.39662
G1 X53.843 Y108.077 E6.42899
G1 X53.98 Y107.113 E6.46138
G1 X54.183 Y106.234 E6.49138
G1 X54.508 Y105.241 E6.52613
G1 X54.863 Y104.411 E6.55616
G1 X55.359 Y103.489 E6.59098
G1 X55.896 Y102.678 E6.62333
G1 X56.504 Y101.917 E6.65573
G1 X57.175 Y101.212 E6.6881
G1 X57.852 Y100.614 E6.71814
G1 X58.369 Y100.219 E6.73978
G1 X59.313 Y99.541 E6.77844
G1 X61.429 Y97.973 E6.86603
G1 X63.42 Y96.409 E6.95024
G1 X65.324 Y94.823 E7.03266
G1 X67.252 Y93.123 E7.11816
G1 X69.066 Y91.435 E7.20057
G1 X71.243 Y89.266 E7.30278
G1 X75.172 Y85.293 E7.48863
G1 X76.882 Y83.461 E7.57198
G1 X78.549 Y81.567 E7.6559
G1 X80.153 Y79.638 E7.73934
G1 X81.72 Y77.643 E7.82372
G1 X83.213 Y75.625 E7.90721
G1 X84.464 Y73.85 E7.97943
G1 X85.061 Y73.08 E8.01184
M204 S2000
G0 F7500 X85.355 Y73.352
M204 S500
G1 F1500 X85.968 Y72.689 E8.04187
G1 X86.69 Y72.036 E8.07425
G1 X87.44 Y71.471 E8.10548
G1 X88.235 Y70.975 E8.13665
G1 X89.073 Y70.55 E8.1679
G1 X89.944 Y70.202 E8.1991
G1 X90.843 Y69.932 E8.23032
G1 X91.727 Y69.748 E8.26035
G1 X93.086 Y69.615 E8.30576
G1 X93.828 Y69.598 E8.33045
G1 X95.511 Y69.609 E8.38643
G1 X96.448 Y69.658 E8.41764
G1 X97.378 Y69.789 E8.44887
G1 X98.257 Y69.992 E8.47888
G1 X99.183 Y70.295 E8.51128
G1 X100.013 Y70.65 E8.54131
G1 X100.872 Y71.112 E8.57375
G1 X101.654 Y71.628 E8.60491
G1 X102.389 Y72.213 E8.63615
G1 X103.069 Y72.859 E8.66735
G1 X103.667 Y73.536 E8.69739
G1 X104.116 Y74.132 E8.72221
G1 X105.565 Y76.203 E8.80628
G1 X107.051 Y78.209 E8.88931
G1 X108.63 Y80.218 E8.9743
G1 X110.224 Y82.132 E9.05715
G1 X111.924 Y84.061 E9.14266
G1 X113.648 Y85.908 E9.2267
G1 X114.961 Y87.249 E9.28912
G1 X116.311 Y88.603 E9.35271
G1 X118.18 Y90.425 E9.43953
G1 X120.043 Y92.142 E9.52379
G1 X121.95 Y93.801 E9.60786
G1 X123.89 Y95.399 E9.69146
G1 X125.887 Y96.947 E9.7755
G1 X127.917 Y98.432 E9.85915
G1 X129.359 Y99.415 E9.9172
G1 X130.444 Y100.171 E9.96118
G1 X131.189 Y100.743 E9.99242
G1 X131.88 Y101.377 E10.02361
G1 X132.513 Y102.07 E10.05483
G1 X133.081 Y102.817 E10.08604
G1 X133.582 Y103.611 E10.11727
G1 X133.995 Y104.414 E10.1473
G1 X134.362 Y105.315 E10.17966
G1 X134.637 Y106.214 E10.21093
G1 X134.831 Y107.132 E10.24213
G1 X134.94 Y108.028 E10.27216
G1 X134.968 Y108.536 E10.28908
G1 X134.983 Y109.184 E10.31064
G1 X134.982 Y110.27 E10.34676
G1 X134.97 Y111.026 E10.3719
G1 X134.913 Y111.963 E10.40313
G1 X134.773 Y112.89 E10.43431
G1 X134.552 Y113.803 E10.46555
G1 X134.251 Y114.692 E10.49677
G1 X133.872 Y115.551 E10.528
G1 X133.419 Y116.372 E10.55918
G1 X132.895 Y117.15 E10.59038
G1 X132.305 Y117.88 E10.6216
G1 X131.652 Y118.554 E10.65281
G1 X130.944 Y119.167 E10.68396
G1 X130.307 Y119.632 E10.71019
G1 X129.653 Y120.075 E10.73647
G1 X127.505 Y121.573 E10.82357
G1 X125.488 Y123.067 E10.90705
G1 X123.486 Y124.637 E10.99167
G1 X121.541 Y126.255 E11.07582
G1 X119.647 Y127.923 E11.15976
G1 X117.809 Y129.637 E11.24335
G1 X115.498 Y131.935 E11.35175
G1 X113.68 Y133.86 E11.43981
G1 X111.991 Y135.756 E11.52427
G1 X110.39 Y137.659 E11.60698
G1 X108.795 Y139.666 E11.69225
G1 X107.3 Y141.663 E11.77522
G1 X105.812 Y143.769 E11.86098
G1 X104.526 Y145.695 E11.93801
G1 X103.992 Y146.423 E11.96804
G1 X103.348 Y147.154 E12.00044
G1 X102.667 Y147.799 E12.03164
G1 X101.932 Y148.383 E12.06286
G1 X101.148 Y148.898 E12.09406
G1 X100.321 Y149.342 E12.12528
G1 X99.458 Y149.712 E12.15651
G1 X98.567 Y150.004 E12.18769
G1 X97.687 Y150.209 E12.21775
G1 X96.727 Y150.345 E12.25
G1 X96.012 Y150.389 E12.27382
G1 X95.334 Y150.402 E12.29638
G1 X93.652 Y150.391 E12.35232
G1 X92.715 Y150.342 E12.38353
G1 X91.785 Y150.211 E12.41477
G1 X90.905 Y150.008 E12.4448
G1 X89.98 Y149.705 E12.47718
G1 X89.15 Y149.35 E12.5072
G1 X88.291 Y148.888 E12.53964
G1 X87.509 Y148.372 E12.5708
G1 X86.774 Y147.787 E12.60205
G1 X86.094 Y147.14 E12.63327
G1 X85.496 Y146.464 E12.66329
G1 X85.133 Y145.989 E12.68317
G1 X83.755 Y144.03 E12.76283
G1 X82.243 Y141.989 E12.84731
G1 X80.68 Y140.001 E12.93142
G1 X79.061 Y138.058 E13.01554
G1 X77.417 Y136.193 E13.09823
G1 X75.676 Y134.327 E13.18311
G1 X73.343 Y131.982 E13.29313
G1 X70.398 Y129.125 E13.4296
G1 X68.557 Y127.438 E13.51266
G1 X66.65 Y125.791 E13.59646
G1 X64.681 Y124.183 E13.68102
G1 X62.7 Y122.655 E13.76423
G1 X60.588 Y121.122 E13.85103
G1 X58.747 Y119.849 E13.92547
G1 X58.001 Y119.281 E13.95666
G1 X57.307 Y118.648 E13.9879
G1 X56.672 Y117.957 E14.01911
G1 X56.101 Y117.213 E14.05031
G1 X55.598 Y116.42 E14.08154
G1 X55.167 Y115.587 E14.11273
G1 X54.811 Y114.719 E14.14394
G1 X54.534 Y113.822 E14.17516
G1 X54.336 Y112.905 E14.20637
G1 X54.224 Y112.009 E14.2364
G1 X54.192 Y111.431 E14.25565
G1 X54.179 Y110.753 E14.27821
G1 X54.19 Y109.07 E14.33418
G1 X54.239 Y108.133 E14.36539
G1 X54.37 Y107.203 E14.39663
G1 X54.573 Y106.324 E14.42663
G1 X54.876 Y105.398 E14.45904
G1 X55.231 Y104.568 E14.48907
G1 X55.693 Y103.709 E14.52151
G1 X56.209 Y102.927 E14.55267
G1 X56.794 Y102.192 E14.58391
G1 X57.44 Y101.512 E14.61511
G1 X58.117 Y100.914 E14.64515
G1 X58.602 Y100.544 E14.66544
G1 X59.546 Y99.866 E14.7041
G1 X61.676 Y98.288 E14.79226
G1 X63.667 Y96.724 E14.87647
G1 X65.589 Y95.123 E14.95967
G1 X67.517 Y93.423 E15.04517
G1 X69.338 Y91.727 E15.12793
G1 X71.525 Y89.549 E15.23059
G1 X75.464 Y85.566 E15.41691
G1 X77.174 Y83.734 E15.50026
G1 X78.849 Y81.831 E15.58458
G1 X80.468 Y79.885 E15.66877
G1 X82.035 Y77.89 E15.75315
G1 X83.535 Y75.863 E15.83702
G1 X84.78 Y74.095 E15.90894
G1 X85.355 Y73.352 E15.94019
M204 S2000
G0 F7500 X85.649 Y73.624
M204 S500
G1 F1500 X86.262 Y72.961 E15.97022
G1 X86.931 Y72.355 E16.00024
G1 X87.652 Y71.81 E16.0303
G1 X88.417 Y71.331 E16.06032
G1 X89.222 Y70.921 E16.09037
G1 X90.06 Y70.585 E16.1204
G1 X90.925 Y70.324 E16.15045
G1 X91.809 Y70.14 E16.18048
G1 X93.095 Y70.015 E16.22346
G1 X93.826 Y69.998 E16.24778
G1 X95.491 Y70.008 E16.30316
G1 X96.393 Y70.054 E16.3332
G1 X97.288 Y70.179 E16.36325
G1 X98.167 Y70.382 E16.39326
G1 X99.026 Y70.663 E16.42332
G1 X99.856 Y71.018 E16.45334
G1 X100.652 Y71.446 E16.4834
G1 X101.406 Y71.942 E16.51342
G1 X102.114 Y72.503 E16.54347
G1 X102.769 Y73.124 E16.57349
G1 X103.367 Y73.801 E16.60353
G1 X103.788 Y74.361 E16.62683
G1 X105.237 Y76.432 E16.7109
G1 X106.737 Y78.456 E16.79469
G1 X108.323 Y80.474 E16.88006
G1 X109.924 Y82.396 E16.96325
G1 X111.632 Y84.334 E17.04917
G1 X113.362 Y86.188 E17.13351
G1 X114.676 Y87.529 E17.19596
G1 X116.032 Y88.889 E17.25984
G1 X117.909 Y90.719 E17.34703
G1 X119.78 Y92.444 E17.43167
G1 X121.687 Y94.103 E17.51574
G1 X123.645 Y95.715 E17.60009
G1 X125.651 Y97.27 E17.68451
G1 X127.681 Y98.755 E17.76816
G1 X129.13 Y99.743 E17.8265
G1 X130.201 Y100.489 E17.86991
G1 X130.919 Y101.038 E17.89997
G1 X131.585 Y101.647 E17.92998
G1 X132.195 Y102.313 E17.96002
G1 X132.743 Y103.031 E17.99006
G1 X133.226 Y103.794 E18.0201
G1 X133.639 Y104.597 E18.05013
G1 X133.98 Y105.433 E18.08016
G1 X134.246 Y106.297 E18.11023
G1 X134.434 Y107.18 E18.14026
G1 X134.543 Y108.076 E18.17028
G1 X134.568 Y108.545 E18.1859
G1 X134.583 Y109.184 E18.20716
G1 X134.582 Y110.264 E18.24308
G1 X134.571 Y111.002 E18.26763
G1 X134.517 Y111.904 E18.29768
G1 X134.384 Y112.797 E18.32771
G1 X134.173 Y113.675 E18.35774
G1 X133.885 Y114.531 E18.38778
G1 X133.522 Y115.358 E18.41782
G1 X133.087 Y116.149 E18.44785
G1 X132.584 Y116.899 E18.47788
G1 X132.017 Y117.602 E18.50792
G1 X131.39 Y118.252 E18.53796
G1 X130.708 Y118.844 E18.568
G1 X130.083 Y119.301 E18.59375
G1 X129.424 Y119.747 E18.62022
G1 X127.276 Y121.245 E18.70732
G1 X125.241 Y122.752 E18.79154
G1 X123.239 Y124.322 E18.87616
G1 X121.285 Y125.948 E18.96071
G1 X119.374 Y127.63 E19.04538
G1 X117.536 Y129.344 E19.12897
G1 X115.216 Y131.651 E19.23779
G1 X113.389 Y133.585 E19.32628
G1 X111.692 Y135.49 E19.41113
G1 X110.084 Y137.401 E19.4942
G1 X108.482 Y139.417 E19.57985
G1 X106.973 Y141.432 E19.66358
G1 X105.485 Y143.538 E19.74934
G1 X104.203 Y145.458 E19.82613
G1 X103.669 Y146.186 E19.85616
G1 X103.073 Y146.864 E19.88618
G1 X102.418 Y147.486 E19.91622
G1 X101.712 Y148.049 E19.94626
G1 X100.958 Y148.546 E19.97629
G1 X100.163 Y148.975 E20.00634
G1 X99.333 Y149.332 E20.03639
G1 X98.476 Y149.614 E20.0664
G1 X97.596 Y149.819 E20.09645
G1 X96.702 Y149.946 E20.12648
G1 X96.004 Y149.989 E20.14974
G1 X95.336 Y150.002 E20.17197
G1 X93.672 Y149.992 E20.22731
G1 X92.77 Y149.946 E20.25735
G1 X91.875 Y149.821 E20.28741
G1 X90.995 Y149.618 E20.31745
G1 X90.137 Y149.337 E20.34747
G1 X89.307 Y148.982 E20.3775
G1 X88.511 Y148.554 E20.40756
G1 X87.757 Y148.058 E20.43758
G1 X87.049 Y147.497 E20.46762
G1 X86.394 Y146.875 E20.49766
G1 X85.796 Y146.199 E20.52768
G1 X85.46 Y145.759 E20.5461
G1 X84.082 Y143.8 E20.62576
G1 X82.564 Y141.751 E20.71057
G1 X80.994 Y139.754 E20.79506
G1 X79.361 Y137.793 E20.87994
G1 X77.717 Y135.928 E20.96263
G1 X75.96 Y134.045 E21.04829
G1 X73.627 Y131.7 E21.15831
G1 X70.677 Y128.838 E21.29501
G1 X68.827 Y127.143 E21.37846
G1 X66.903 Y125.481 E21.46303
G1 X64.934 Y123.873 E21.54758
G1 X62.935 Y122.331 E21.63155
G1 X60.823 Y120.798 E21.71835
G1 X58.989 Y119.53 E21.79251
G1 X58.27 Y118.985 E21.82252
G1 X57.601 Y118.377 E21.85258
G1 X56.989 Y117.713 E21.88262
G1 X56.438 Y116.998 E21.91264
G1 X55.953 Y116.236 E21.94268
G1 X55.537 Y115.435 E21.9727
G1 X55.193 Y114.6 E22.00274
G1 X54.925 Y113.737 E22.0328
G1 X54.733 Y112.855 E22.06282
G1 X54.621 Y111.959 E22.09285
G1 X54.592 Y111.423 E22.1107
G1 X54.579 Y110.755 E22.13293
G1 X54.589 Y109.09 E22.18831
G1 X54.635 Y108.188 E22.21834
G1 X54.76 Y107.293 E22.2484
G1 X54.963 Y106.414 E22.27841
G1 X55.244 Y105.555 E22.30847
G1 X55.599 Y104.725 E22.33849
G1 X56.027 Y103.929 E22.36855
G1 X56.523 Y103.175 E22.39857
G1 X57.084 Y102.467 E22.42861
G1 X57.705 Y101.812 E22.45863
G1 X58.382 Y101.214 E22.48868
G1 X58.836 Y100.869 E22.50764
G1 X59.78 Y100.19 E22.54632
G1 X61.923 Y98.603 E22.63501
G1 X63.914 Y97.039 E22.71922
G1 X65.854 Y95.423 E22.8032
G1 X67.782 Y93.723 E22.88869
G1 X69.61 Y92.019 E22.97181
G1 X71.807 Y89.832 E23.07492
G1 X75.756 Y85.839 E23.2617
G1 X77.466 Y84.007 E23.34505
G1 X79.149 Y82.095 E23.42977
G1 X80.783 Y80.132 E23.51472
G1 X82.35 Y78.137 E23.5991
G1 X83.857 Y76.101 E23.68335
G1 X85.097 Y74.339 E23.75501
G1 X85.649 Y73.624 E23.78505
M204 S2000
G1 F2400 E22.98505
;MESH:Impeller.STL
G0 F7500 X89.927 Y89.682
G0 X97.241 Y128.974
M204 S500
;TYPE:WALL-INNER
G1 F2400 E23.78505
G1 F1500 X98.779 Y128.745 E23.83677
G1 X101.759 Y127.795 E23.9408
G1 X104.548 Y126.375 E24.0449
G1 X107.069 Y124.524 E24.14892
G1 X109.27 Y122.286 E24.25332
G1 X111.077 Y119.729 E24.35746
G1 X112.443 Y116.928 E24.46111
G1 X113.343 Y113.929 E24.56525
G1 X113.766 Y110.74 E24.67225
G1 X113.855 Y110.52 E24.68014
G1 X113.994 Y110.373 E24.68687
G1 X114.304 Y110.254 E24.69791
G1 X123.78 Y110.252 E25.01309
G1 X123.78 Y109.452 E25.03969
G1 X114.304 Y109.45 E25.35487
G1 X113.994 Y109.331 E25.36591
